svg/black/dgb.svg

<svg xmlns="http://www.w3.org/2000/svg" width="32" height="32" viewBox="0 0 32 32">
  <path fill-rule="evenodd" d="M16,32 C7.163444,32 0,24.836556 0,16 C0,7.163444 7.163444,0 16,0 C24.836556,0 32,7.163444 32,16 C32,24.836556 24.836556,32 16,32 Z M12.3680548,24.9999014 L12.543797,24.9999014 C13.1079487,24.9999014 13.6721004,25.0002131 14.236286,24.9997282 C14.4976444,24.9995203 14.5930938,24.9329086 14.6876616,24.6822572 C14.8416691,24.2741346 14.9982536,23.8669127 15.1445302,23.4558804 C15.1864737,23.3380368 15.2496433,23.2852116 15.3694043,23.2563915 C16.7093917,22.9340017 18.002926,22.4782152 19.2270518,21.828586 C20.3612551,21.2266901 21.3952619,20.4826683 22.2905875,19.5468823 C23.5909032,18.1878016 24.4887718,16.5748826 25.1206027,14.8007168 C25.3875558,14.0510834 25.5352905,13.2745698 25.4927706,12.4708295 C25.4488266,11.6399665 25.1716334,10.9046392 24.6142632,10.2890953 C24.2022201,9.83400161 23.7014414,9.50866744 23.1502084,9.2600944 C22.4246235,8.93285506 21.6606893,8.75539691 20.8763427,8.65892591 C20.8309407,8.65334895 20.7860812,8.6431303 20.7304052,8.6332234 C20.7549542,8.56321698 20.7721452,8.51136165 20.7912351,8.46026839 C20.9285263,8.09302043 21.0679536,7.72660381 21.2030408,7.35848987 C21.2876398,7.12799865 21.2033798,7.00204943 20.9647733,7.00125272 C20.4006216,6.99948611 19.8364699,7.00028282 19.2723182,7.00094097 C19.1386212,7.00107952 19.1374684,7.00229191 19.0874549,7.13454551 C18.921512,7.57360115 18.7567219,8.0131071 18.5908129,8.45216274 C18.5737575,8.49743657 18.5523619,8.54097842 18.5332042,8.5847281 L17.7281402,8.5847281 C17.7504174,8.51686933 17.7669642,8.45988735 17.7876817,8.40449879 C17.9114777,8.07348375 18.0366978,7.7429883 18.1603243,7.41190397 C18.1795837,7.36042968 18.2001994,7.307743 18.2079981,7.2538093 C18.2268845,7.12339159 18.1537801,7.02432263 18.0271698,7.004301 C17.9846838,6.9975463 17.9406042,7.00076777 17.8972027,7.00076777 C17.3602108,7.00055993 16.8231511,7.00062921 16.2861254,7.00062921 L16.1149607,7.00062921 C15.9136184,7.53310758 15.7149887,8.05845021 15.5135108,8.59134425 L15.3115243,8.59134425 C13.4237624,8.59134425 11.5360006,8.59207168 9.6482726,8.5906861 C9.33117038,8.59044362 9.09727698,8.72806635 8.9416419,9.00854236 C8.47914465,9.84224581 8.01634224,10.6757761 7.55448923,11.5098605 C7.53489074,11.5452621 7.5237352,11.5855478 7.5,11.6452663 L7.73036703,11.6452663 C11.2617573,11.6452663 14.7931476,11.6452663 18.3245379,11.6452663 C18.3896402,11.6452663 18.4547424,11.6452317 18.5198447,11.6456127 C19.0875906,11.6486956 19.6144441,11.7926228 20.0816206,12.1304964 C20.4353428,12.3863091 20.6725252,12.7280278 20.7803169,13.1596706 C20.8789875,13.5549072 20.8559305,13.9509753 20.7834703,14.3463158 C20.6588266,15.0266356 20.4344273,15.67384 20.1134596,16.2810357 C18.6454039,19.0582229 16.3732335,20.5358746 13.277418,20.670934 C13.2323889,20.6729084 13.1869869,20.6665348 13.1293104,20.6633826 C13.1550122,20.5876606 13.1727458,20.5301937 13.1938701,20.4740431 C13.8796477,18.6493729 14.5657305,16.8248066 15.2518472,15.0002749 C15.4092794,14.581622 15.5708483,14.1645278 15.7231943,13.7439696 C15.8385135,13.4256326 15.6549726,13.1456762 15.3243752,13.12129 C15.2919597,13.1188999 15.2593069,13.1194541 15.2267896,13.1194541 C14.1364286,13.1193502 13.0461016,13.1192463 11.9557406,13.1198005 C11.9084397,13.1198005 11.8611049,13.1258624 11.820789,13.1286336 C11.6601017,13.4363362 7.6100974,23.6480257 7.59843325,23.7811799 C8.30770872,23.8623402 9.02095137,23.8748451 9.75413157,23.8944857 C9.61595883,24.2670681 9.48439802,24.6218112 9.35178609,24.9794641 C9.3847102,24.989267 9.40000245,24.9977883 9.4152947,24.997823 C10.0445487,24.9987929 10.6737687,24.9999706 11.3029887,24.9985158 C11.4464511,24.9981694 11.5494279,24.9203344 11.616429,24.7953205 C11.6474543,24.7374379 11.6672223,24.6730777 11.6907201,24.6111769 C11.7924085,24.3434136 11.8936222,24.0754424 11.9971754,23.8017558 C12.275318,23.7742174 12.5469165,23.7473371 12.8468276,23.7176164 C12.6830887,24.1561871 12.5312173,24.5628894 12.3680548,24.9999014 Z"/>
</svg>

<svg xmlns="http://www.w3.org/2000/svg" width="32" height="32"><path fill-rule="evenodd" d="M16 32C7.163 32 0 24.837 0 16S7.163 0 16 0s16 7.163 16 16-7.163 16-16 16zm-3.632-7H14.236c.262 0 .357-.067.452-.318.154-.408.31-.815.457-1.226.041-.118.105-.17.224-.2 1.34-.322 2.634-.778 3.858-1.427 1.134-.602 2.168-1.346 3.064-2.282 1.3-1.36 2.198-2.972 2.83-4.746.267-.75.414-1.526.372-2.33-.044-.831-.321-1.566-.879-2.182-.412-.455-.913-.78-1.464-1.029-.725-.327-1.49-.505-2.274-.601-.045-.006-.09-.016-.146-.026l.061-.173c.138-.367.277-.733.412-1.102.085-.23 0-.356-.238-.357-.564-.002-1.129 0-1.693 0-.133 0-.135.001-.185.134l-.496 1.317c-.017.045-.039.089-.058.133h-.805c.022-.068.039-.125.06-.18.123-.332.249-.662.372-.993.02-.052.04-.104.048-.158.019-.13-.054-.23-.18-.25-.043-.006-.087-.003-.13-.003H16.114l-.601 1.59H9.648a.754.754 0 0 0-.706.418l-1.388 2.5c-.02.036-.03.077-.054.136H18.52c.568.004 1.094.148 1.562.485.353.256.59.598.698 1.03.099.395.076.791.003 1.186a6.711 6.711 0 0 1-.67 1.935c-1.468 2.777-3.74 4.255-6.836 4.39-.045.002-.09-.004-.148-.008.026-.075.044-.133.065-.189L15.252 15c.157-.418.319-.835.471-1.256.116-.318-.068-.598-.399-.623-.032-.002-.065-.002-.097-.002h-3.271c-.048 0-.095.007-.135.01-.16.307-4.21 10.519-4.223 10.652.71.081 1.423.094 2.156.113l-.402 1.085c.033.01.048.019.063.019.63 0 1.259.002 1.888 0 .143 0 .246-.078.313-.203.031-.058.051-.122.075-.184l.306-.81.85-.083L12.368 25z"/></svg>
